X: 1
T: Bert Ferguson    [A]
C: Samuel Ian Rothmar Burns (1980)
S: RSCDS handout for 2022-2-7 online session
S: http://www.thursdaycontra.com/~spuds/tunes/jigs/BertFerg.abc
R: jig
M: 6/8
K: A
AB |\
"A"cBc E2B | cBc e2E |  "D"F2A BAB | "A"cec "E"BAB ||\
"A"cBc E2B | cBc e2E | "Bm"F2A BAF | "E"EAA "A"A :|
|: ce |\
"D"f2f fec | "E"efg "A"a2e |  "D"f2f fec | "Bm"fBB "E"Bce ||\
"D"f2f fec | "A"edc    cBA | "Bm"F2A BAF |  "E"EAA "A"A :|
